X:536
T: NINA BUBBAEIAE SCHLOF
N: E1813
O: Europa, Mitteleuropa, Deutschland; Frankreich, Elsass
R: Kinder -, Wiegen -, Schlaf - Lied
M: 6/8
L: 1/8
K: F
 | c3A3 | GFGF2z |
G2GA2c | B2BA3 |
c2cB2B | A2AG3 |
F2GA2B | A2GF2z

@@@ Tune index: 5220
